src/assets/icons/amazon.svg

<svg width="14" height="14" viewBox="0 0 14 14" fill="none" xmlns="http://www.w3.org/2000/svg">
<g id="amazon">
<g clip-path="url(#clip0_156_4475)">
<path id="Vector" d="M8.07065 4.08487C6.49935 4.14086 2.60259 4.56957 2.60259 7.75592C2.60259 11.1776 7.06366 11.3176 8.5221 9.10587C8.73208 9.42433 9.66383 10.2773 9.98317 10.5678L11.8152 8.81802C11.8152 8.81802 10.7732 8.02713 10.7732 7.16799V2.57132C10.7732 1.78042 9.98316 0 7.15027 0C4.31125 0 2.80469 1.71829 2.80469 3.25897L5.17564 3.47158C5.70145 1.92477 6.92367 1.92477 6.92367 1.92477C8.23863 1.92302 8.07065 2.8574 8.07065 4.08487ZM8.07065 6.79703C8.07065 9.29659 5.35412 8.92215 5.35412 7.33422C5.35412 5.85916 6.98317 5.56255 8.07065 5.52843V6.79703ZM12.4582 11.9064C12.2098 12.2187 10.2001 14 6.82918 14C3.45823 14 0.877309 11.7655 0.0872833 10.8443C-0.132314 10.6037 0.119657 10.4908 0.264889 10.5853C2.62972 11.9755 6.32263 14.266 12.2815 11.5319C12.523 11.4156 12.7102 11.5932 12.4582 11.9064ZM13.7417 11.9746C13.5317 12.4681 13.2255 12.8119 13.0575 12.9431C12.8799 13.084 12.7513 13.0271 12.8476 12.8242C12.9447 12.6212 13.4705 11.3709 13.257 11.1059C13.047 10.8469 12.0637 10.9711 11.7085 11.0061C11.3602 11.0376 11.2894 11.0682 11.257 10.9965C11.1826 10.818 11.9569 10.5118 12.467 10.4497C12.9735 10.3937 13.7898 10.4243 13.9508 10.6282C14.0715 10.7874 13.9517 11.4751 13.7417 11.9746Z" fill="black"/>
</g>
</g>
<defs>
<clipPath id="clip0_156_4475">
<rect width="14" height="14" fill="white"/>
</clipPath>
</defs>
</svg>

<svg xmlns="http://www.w3.org/2000/svg" fill="none" viewBox="0 0 14 14"><g clip-path="url(#a)"><path fill="#000" d="M8.07 4.085c-1.57.056-5.467.485-5.467 3.67 0 3.423 4.46 3.563 5.92 1.35.21.32 1.14 1.172 1.46 1.463l1.832-1.75s-1.042-.79-1.042-1.65V2.571c0-.79-.79-2.571-3.623-2.571-2.839 0-4.345 1.718-4.345 3.259l2.37.213c.526-1.547 1.749-1.547 1.749-1.547 1.315-.002 1.147.932 1.147 2.16m0 2.712c0 2.5-2.716 2.125-2.716.537 0-1.475 1.63-1.771 2.717-1.806zm4.388 5.11C12.21 12.218 10.2 14 6.83 14S.877 11.765.087 10.844c-.22-.24.033-.353.178-.259 2.365 1.39 6.058 3.681 12.016.947.242-.116.43.061.177.374m1.284.068c-.21.493-.517.837-.685.968-.177.141-.306.084-.21-.119.098-.203.624-1.453.41-1.718-.21-.26-1.193-.135-1.548-.1-.349.032-.42.062-.452-.01-.074-.178.7-.484 1.21-.546.506-.056 1.323-.026 1.484.178.12.16 0 .847-.21 1.347"/></g><defs><clipPath id="a"><path fill="#fff" d="M0 0h14v14H0z"/></clipPath></defs></svg>
